images/3233802.svg

<?xml version="1.0" encoding="UTF-8"?>
<svg xmlns="http://www.w3.org/2000/svg" xmlns:xlink="http://www.w3.org/1999/xlink" width="300pt" height="300pt" viewBox="0 0 300 300" version="1.1">
<defs>
<g>
<symbol overflow="visible" id="glyph0-0">
<path style="stroke:none;" d="M 0.453125 1.59375 L 0.453125 -6.34375 L 4.953125 -6.34375 L 4.953125 1.59375 Z M 0.953125 1.09375 L 4.453125 1.09375 L 4.453125 -5.84375 L 0.953125 -5.84375 Z M 0.953125 1.09375 "/>
</symbol>
<symbol overflow="visible" id="glyph0-1">
<path style="stroke:none;" d="M 0.890625 -6.5625 L 2.078125 -6.5625 L 4.984375 -1.078125 L 4.984375 -6.5625 L 5.84375 -6.5625 L 5.84375 0 L 4.65625 0 L 1.75 -5.484375 L 1.75 0 L 0.890625 0 Z M 0.890625 -6.5625 "/>
</symbol>
<symbol overflow="visible" id="glyph0-2">
<path style="stroke:none;" d="M 3.546875 -5.953125 C 2.898438 -5.953125 2.382812 -5.710938 2 -5.234375 C 1.625 -4.753906 1.4375 -4.101562 1.4375 -3.28125 C 1.4375 -2.445312 1.625 -1.789062 2 -1.3125 C 2.382812 -0.832031 2.898438 -0.59375 3.546875 -0.59375 C 4.191406 -0.59375 4.703125 -0.832031 5.078125 -1.3125 C 5.453125 -1.789062 5.640625 -2.445312 5.640625 -3.28125 C 5.640625 -4.101562 5.453125 -4.753906 5.078125 -5.234375 C 4.703125 -5.710938 4.191406 -5.953125 3.546875 -5.953125 Z M 3.546875 -6.6875 C 4.460938 -6.6875 5.195312 -6.375 5.75 -5.75 C 6.300781 -5.132812 6.578125 -4.3125 6.578125 -3.28125 C 6.578125 -2.238281 6.300781 -1.410156 5.75 -0.796875 C 5.195312 -0.179688 4.460938 0.125 3.546875 0.125 C 2.617188 0.125 1.878906 -0.179688 1.328125 -0.796875 C 0.773438 -1.410156 0.5 -2.238281 0.5 -3.28125 C 0.5 -4.3125 0.773438 -5.132812 1.328125 -5.75 C 1.878906 -6.375 2.617188 -6.6875 3.546875 -6.6875 Z M 3.546875 -6.6875 "/>
</symbol>
<symbol overflow="visible" id="glyph0-3">
<path style="stroke:none;" d="M 0.890625 -6.5625 L 4.65625 -6.5625 L 4.65625 -5.8125 L 1.765625 -5.8125 L 1.765625 -3.875 L 4.375 -3.875 L 4.375 -3.140625 L 1.765625 -3.140625 L 1.765625 0 L 0.890625 0 Z M 0.890625 -6.5625 "/>
</symbol>
</g>
</defs>
<g id="surface34973">
<rect x="0" y="0" width="300" height="300" style="fill:rgb(100%,100%,100%);fill-opacity:1;stroke:none;"/>
<path style="fill:none;stroke-width:1.2;stroke-linecap:butt;stroke-linejoin:miter;stroke:rgb(0%,0%,0%);stroke-opacity:1;stroke-miterlimit:10;" d="M 156.585938 199.464844 L 133.894531 197.089844 "/>
<path style="fill:none;stroke-width:1.2;stroke-linecap:butt;stroke-linejoin:miter;stroke:rgb(0%,0%,0%);stroke-opacity:1;stroke-miterlimit:10;" d="M 169.988281 181 L 156.585938 199.464844 "/>
<path style="fill:none;stroke-width:1;stroke-linecap:butt;stroke-linejoin:miter;stroke:rgb(0%,0%,0%);stroke-opacity:1;stroke-miterlimit:10;" d="M 124.605469 176.253906 L 124.605469 176.253906 M 125.332031 179.164062 L 126.285156 178.738281 M 126.058594 182.074219 L 127.964844 181.222656 M 126.785156 184.984375 L 129.640625 183.710938 M 127.511719 187.894531 L 131.320312 186.195312 M 128.238281 190.804688 L 133 188.683594 M 128.964844 193.714844 L 134.679688 191.167969 M 129.691406 196.625 L 136.359375 193.65625 M 130.21875 198.730469 L 137.574219 195.449219 "/>
<path style="fill:none;stroke-width:1.2;stroke-linecap:butt;stroke-linejoin:miter;stroke:rgb(0%,0%,0%);stroke-opacity:1;stroke-miterlimit:10;" d="M 124.605469 176.253906 L 109.347656 193.214844 "/>
<path style="fill:none;stroke-width:1.2;stroke-linecap:butt;stroke-linejoin:miter;stroke:rgb(0%,0%,0%);stroke-opacity:1;stroke-miterlimit:10;" d="M 124.605469 176.253906 L 138.007812 157.785156 "/>
<path style="fill:none;stroke-width:1.2;stroke-linecap:butt;stroke-linejoin:miter;stroke:rgb(0%,0%,0%);stroke-opacity:1;stroke-miterlimit:10;" d="M 113.1875 156.5 L 124.605469 176.253906 "/>
<path style="fill:none;stroke-width:1.2;stroke-linecap:butt;stroke-linejoin:miter;stroke:rgb(0%,0%,0%);stroke-opacity:1;stroke-miterlimit:10;" d="M 109.347656 193.214844 L 88.5 183.945312 "/>
<path style="fill:none;stroke-width:1.2;stroke-linecap:butt;stroke-linejoin:miter;stroke:rgb(0%,0%,0%);stroke-opacity:1;stroke-miterlimit:10;" d="M 88.5 183.945312 L 89.6875 172.601562 "/>
<path style="fill:none;stroke-width:1.2;stroke-linecap:butt;stroke-linejoin:miter;stroke:rgb(0%,0%,100%);stroke-opacity:1;stroke-miterlimit:10;" d="M 89.6875 172.601562 L 90.871094 161.253906 "/>
<path style="fill:none;stroke-width:1.2;stroke-linecap:butt;stroke-linejoin:miter;stroke:rgb(0%,0%,100%);stroke-opacity:1;stroke-miterlimit:10;" d="M 90.871094 161.253906 L 102.03125 158.878906 "/>
<path style="fill:none;stroke-width:1.2;stroke-linecap:butt;stroke-linejoin:miter;stroke:rgb(0%,0%,0%);stroke-opacity:1;stroke-miterlimit:10;" d="M 102.03125 158.878906 L 113.1875 156.5 "/>
<path style="fill:none;stroke-width:1.2;stroke-linecap:butt;stroke-linejoin:miter;stroke:rgb(0%,0%,100%);stroke-opacity:1;stroke-miterlimit:10;" d="M 90.871094 161.253906 L 82.390625 153.625 "/>
<path style="fill:none;stroke-width:1.2;stroke-linecap:butt;stroke-linejoin:miter;stroke:rgb(0%,0%,0%);stroke-opacity:1;stroke-miterlimit:10;" d="M 82.390625 153.625 L 73.910156 145.996094 "/>
<path style=" stroke:none;fill-rule:nonzero;fill:rgb(100%,100%,100%);fill-opacity:1;" d="M 87.871094 155.753906 L 94.871094 155.753906 L 94.871094 166.753906 L 87.871094 166.753906 Z M 87.871094 155.753906 "/>
<g style="fill:rgb(0%,0%,100%);fill-opacity:1;">
  <use xlink:href="#glyph0-1" x="87.871094" y="164.416992"/>
</g>
<path style="fill:none;stroke-width:1.2;stroke-linecap:butt;stroke-linejoin:miter;stroke:rgb(0%,0%,0%);stroke-opacity:1;stroke-miterlimit:10;" d="M 73.910156 145.996094 L 78.640625 123.675781 "/>
<path style="fill:none;stroke-width:1.2;stroke-linecap:butt;stroke-linejoin:miter;stroke:rgb(0%,0%,0%);stroke-opacity:1;stroke-miterlimit:10;" d="M 69.128906 142.652344 L 72.914062 124.796875 "/>
<path style="fill:none;stroke-width:1.2;stroke-linecap:butt;stroke-linejoin:miter;stroke:rgb(0%,0%,0%);stroke-opacity:1;stroke-miterlimit:10;" d="M 52.214844 153.058594 L 73.910156 145.996094 "/>
<path style="fill:none;stroke-width:1.2;stroke-linecap:butt;stroke-linejoin:miter;stroke:rgb(0%,0%,0%);stroke-opacity:1;stroke-miterlimit:10;" d="M 78.640625 123.675781 L 61.675781 108.417969 "/>
<path style="fill:none;stroke-width:1.2;stroke-linecap:butt;stroke-linejoin:miter;stroke:rgb(0%,0%,0%);stroke-opacity:1;stroke-miterlimit:10;" d="M 61.675781 108.417969 L 39.980469 115.480469 "/>
<path style="fill:none;stroke-width:1.2;stroke-linecap:butt;stroke-linejoin:miter;stroke:rgb(0%,0%,0%);stroke-opacity:1;stroke-miterlimit:10;" d="M 61.167969 114.230469 L 43.8125 119.878906 "/>
<path style="fill:none;stroke-width:1.2;stroke-linecap:butt;stroke-linejoin:miter;stroke:rgb(0%,0%,0%);stroke-opacity:1;stroke-miterlimit:10;" d="M 39.980469 115.480469 L 35.25 137.800781 "/>
<path style="fill:none;stroke-width:1.2;stroke-linecap:butt;stroke-linejoin:miter;stroke:rgb(0%,0%,0%);stroke-opacity:1;stroke-miterlimit:10;" d="M 35.25 137.800781 L 52.214844 153.058594 "/>
<path style="fill:none;stroke-width:1.2;stroke-linecap:butt;stroke-linejoin:miter;stroke:rgb(0%,0%,0%);stroke-opacity:1;stroke-miterlimit:10;" d="M 40.535156 135.335938 L 54.105469 147.542969 "/>
<path style="fill:none;stroke-width:1.2;stroke-linecap:butt;stroke-linejoin:miter;stroke:rgb(0%,0%,0%);stroke-opacity:1;stroke-miterlimit:10;" d="M 138.007812 157.785156 L 149.351562 158.972656 "/>
<path style="fill:none;stroke-width:1.2;stroke-linecap:butt;stroke-linejoin:miter;stroke:rgb(0%,0%,100%);stroke-opacity:1;stroke-miterlimit:10;" d="M 149.351562 158.972656 L 160.699219 160.160156 "/>
<path style="fill:none;stroke-width:1.2;stroke-linecap:butt;stroke-linejoin:miter;stroke:rgb(0%,0%,100%);stroke-opacity:1;stroke-miterlimit:10;" d="M 160.699219 160.160156 L 165.34375 170.578125 "/>
<path style="fill:none;stroke-width:1.2;stroke-linecap:butt;stroke-linejoin:miter;stroke:rgb(0%,0%,0%);stroke-opacity:1;stroke-miterlimit:10;" d="M 165.34375 170.578125 L 169.988281 181 "/>
<path style="fill:none;stroke-width:1.2;stroke-linecap:butt;stroke-linejoin:miter;stroke:rgb(0%,0%,100%);stroke-opacity:1;stroke-miterlimit:10;" d="M 160.699219 160.160156 L 167.398438 150.925781 "/>
<path style="fill:none;stroke-width:1.2;stroke-linecap:butt;stroke-linejoin:miter;stroke:rgb(0%,0%,0%);stroke-opacity:1;stroke-miterlimit:10;" d="M 167.398438 150.925781 L 174.097656 141.695312 "/>
<path style=" stroke:none;fill-rule:nonzero;fill:rgb(100%,100%,100%);fill-opacity:1;" d="M 157.699219 154.660156 L 164.699219 154.660156 L 164.699219 165.660156 L 157.699219 165.660156 Z M 157.699219 154.660156 "/>
<g style="fill:rgb(0%,0%,100%);fill-opacity:1;">
  <use xlink:href="#glyph0-1" x="157.699219" y="163.323242"/>
</g>
<path style="fill:none;stroke-width:1.2;stroke-linecap:butt;stroke-linejoin:miter;stroke:rgb(0%,0%,0%);stroke-opacity:1;stroke-miterlimit:10;" d="M 176.550781 140.601562 L 171.90625 130.183594 "/>
<path style="fill:none;stroke-width:1.2;stroke-linecap:butt;stroke-linejoin:miter;stroke:rgb(100%,0%,0%);stroke-opacity:1;stroke-miterlimit:10;" d="M 171.90625 130.183594 L 167.257812 119.761719 "/>
<path style="fill:none;stroke-width:1.2;stroke-linecap:butt;stroke-linejoin:miter;stroke:rgb(0%,0%,0%);stroke-opacity:1;stroke-miterlimit:10;" d="M 171.648438 142.789062 L 167 132.367188 "/>
<path style="fill:none;stroke-width:1.2;stroke-linecap:butt;stroke-linejoin:miter;stroke:rgb(100%,0%,0%);stroke-opacity:1;stroke-miterlimit:10;" d="M 167 132.367188 L 162.355469 121.949219 "/>
<path style="fill:none;stroke-width:1.2;stroke-linecap:butt;stroke-linejoin:miter;stroke:rgb(0%,0%,0%);stroke-opacity:1;stroke-miterlimit:10;" d="M 174.097656 141.695312 L 196.789062 144.066406 "/>
<path style=" stroke:none;fill-rule:nonzero;fill:rgb(100%,100%,100%);fill-opacity:1;" d="M 156.808594 115.355469 L 164.808594 115.355469 L 164.808594 126.355469 L 156.808594 126.355469 Z M 156.808594 115.355469 "/>
<g style="fill:rgb(100%,0%,0%);fill-opacity:1;">
  <use xlink:href="#glyph0-2" x="156.808594" y="124.018555"/>
</g>
<path style="fill:none;stroke-width:1.2;stroke-linecap:butt;stroke-linejoin:miter;stroke:rgb(0%,0%,0%);stroke-opacity:1;stroke-miterlimit:10;" d="M 196.789062 144.066406 L 206.082031 164.90625 "/>
<path style="fill:none;stroke-width:1.2;stroke-linecap:butt;stroke-linejoin:miter;stroke:rgb(0%,0%,0%);stroke-opacity:1;stroke-miterlimit:10;" d="M 202.621094 143.964844 L 210.054688 160.636719 "/>
<path style="fill:none;stroke-width:1.2;stroke-linecap:butt;stroke-linejoin:miter;stroke:rgb(0%,0%,0%);stroke-opacity:1;stroke-miterlimit:10;" d="M 210.191406 125.601562 L 196.789062 144.066406 "/>
<path style="fill:none;stroke-width:1.2;stroke-linecap:butt;stroke-linejoin:miter;stroke:rgb(0%,0%,0%);stroke-opacity:1;stroke-miterlimit:10;" d="M 206.082031 164.90625 L 228.773438 167.277344 "/>
<path style="fill:none;stroke-width:1.2;stroke-linecap:butt;stroke-linejoin:miter;stroke:rgb(0%,0%,0%);stroke-opacity:1;stroke-miterlimit:10;" d="M 228.773438 167.277344 L 242.175781 148.8125 "/>
<path style="fill:none;stroke-width:1.2;stroke-linecap:butt;stroke-linejoin:miter;stroke:rgb(0%,0%,0%);stroke-opacity:1;stroke-miterlimit:10;" d="M 225.769531 162.277344 L 236.488281 147.507812 "/>
<path style="fill:none;stroke-width:1.2;stroke-linecap:butt;stroke-linejoin:miter;stroke:rgb(0%,0%,0%);stroke-opacity:1;stroke-miterlimit:10;" d="M 228.773438 167.277344 L 238.066406 188.117188 "/>
<path style="fill:none;stroke-width:1.2;stroke-linecap:butt;stroke-linejoin:miter;stroke:rgb(0%,0%,0%);stroke-opacity:1;stroke-miterlimit:10;" d="M 242.175781 148.8125 L 232.882812 127.976562 "/>
<path style="fill:none;stroke-width:1.2;stroke-linecap:butt;stroke-linejoin:miter;stroke:rgb(0%,0%,0%);stroke-opacity:1;stroke-miterlimit:10;" d="M 232.882812 127.976562 L 210.191406 125.601562 "/>
<path style="fill:none;stroke-width:1.2;stroke-linecap:butt;stroke-linejoin:miter;stroke:rgb(0%,0%,0%);stroke-opacity:1;stroke-miterlimit:10;" d="M 230.054688 133.078125 L 211.902344 131.179688 "/>
<path style="fill:none;stroke-width:1.2;stroke-linecap:butt;stroke-linejoin:miter;stroke:rgb(0%,0%,0%);stroke-opacity:1;stroke-miterlimit:10;" d="M 232.882812 127.976562 L 246.285156 109.511719 "/>
<path style="fill:none;stroke-width:1.2;stroke-linecap:butt;stroke-linejoin:miter;stroke:rgb(0%,0%,0%);stroke-opacity:1;stroke-miterlimit:10;" d="M 246.285156 109.511719 L 252.984375 100.277344 "/>
<path style="fill:none;stroke-width:1.2;stroke-linecap:butt;stroke-linejoin:miter;stroke:rgb(20%,80%,80%);stroke-opacity:1;stroke-miterlimit:10;" d="M 252.984375 100.277344 L 259.6875 91.042969 "/>
<path style="fill:none;stroke-width:1.2;stroke-linecap:butt;stroke-linejoin:miter;stroke:rgb(0%,0%,0%);stroke-opacity:1;stroke-miterlimit:10;" d="M 246.285156 109.511719 L 255.515625 116.210938 "/>
<path style="fill:none;stroke-width:1.2;stroke-linecap:butt;stroke-linejoin:miter;stroke:rgb(20%,80%,80%);stroke-opacity:1;stroke-miterlimit:10;" d="M 255.515625 116.210938 L 264.75 122.910156 "/>
<path style="fill:none;stroke-width:1.2;stroke-linecap:butt;stroke-linejoin:miter;stroke:rgb(0%,0%,0%);stroke-opacity:1;stroke-miterlimit:10;" d="M 246.285156 109.511719 L 237.050781 102.808594 "/>
<path style="fill:none;stroke-width:1.2;stroke-linecap:butt;stroke-linejoin:miter;stroke:rgb(20%,80%,80%);stroke-opacity:1;stroke-miterlimit:10;" d="M 237.050781 102.808594 L 227.820312 96.109375 "/>
<path style=" stroke:none;fill-rule:nonzero;fill:rgb(100%,100%,100%);fill-opacity:1;" d="M 256.6875 85.542969 L 262.6875 85.542969 L 262.6875 96.542969 L 256.6875 96.542969 Z M 256.6875 85.542969 "/>
<g style="fill:rgb(20%,80%,80%);fill-opacity:1;">
  <use xlink:href="#glyph0-3" x="256.6875" y="94.206055"/>
</g>
<path style=" stroke:none;fill-rule:nonzero;fill:rgb(100%,100%,100%);fill-opacity:1;" d="M 261.75 117.410156 L 267.75 117.410156 L 267.75 128.410156 L 261.75 128.410156 Z M 261.75 117.410156 "/>
<g style="fill:rgb(20%,80%,80%);fill-opacity:1;">
  <use xlink:href="#glyph0-3" x="261.75" y="126.073242"/>
</g>
<path style=" stroke:none;fill-rule:nonzero;fill:rgb(100%,100%,100%);fill-opacity:1;" d="M 221.820312 90.609375 L 227.820312 90.609375 L 227.820312 101.609375 L 221.820312 101.609375 Z M 221.820312 90.609375 "/>
<g style="fill:rgb(20%,80%,80%);fill-opacity:1;">
  <use xlink:href="#glyph0-3" x="221.820312" y="99.272461"/>
</g>
<path style="fill:none;stroke-width:1.2;stroke-linecap:butt;stroke-linejoin:miter;stroke:rgb(0%,0%,0%);stroke-opacity:1;stroke-miterlimit:10;" d="M 238.066406 188.117188 L 242.710938 198.535156 "/>
<path style="fill:none;stroke-width:1.2;stroke-linecap:butt;stroke-linejoin:miter;stroke:rgb(20%,80%,80%);stroke-opacity:1;stroke-miterlimit:10;" d="M 242.710938 198.535156 L 247.355469 208.957031 "/>
<path style="fill:none;stroke-width:1.2;stroke-linecap:butt;stroke-linejoin:miter;stroke:rgb(0%,0%,0%);stroke-opacity:1;stroke-miterlimit:10;" d="M 238.066406 188.117188 L 227.644531 192.761719 "/>
<path style="fill:none;stroke-width:1.2;stroke-linecap:butt;stroke-linejoin:miter;stroke:rgb(20%,80%,80%);stroke-opacity:1;stroke-miterlimit:10;" d="M 227.644531 192.761719 L 217.226562 197.40625 "/>
<path style="fill:none;stroke-width:1.2;stroke-linecap:butt;stroke-linejoin:miter;stroke:rgb(0%,0%,0%);stroke-opacity:1;stroke-miterlimit:10;" d="M 238.066406 188.117188 L 248.484375 183.472656 "/>
<path style="fill:none;stroke-width:1.2;stroke-linecap:butt;stroke-linejoin:miter;stroke:rgb(20%,80%,80%);stroke-opacity:1;stroke-miterlimit:10;" d="M 248.484375 183.472656 L 258.902344 178.828125 "/>
<path style=" stroke:none;fill-rule:nonzero;fill:rgb(100%,100%,100%);fill-opacity:1;" d="M 244.355469 203.457031 L 250.355469 203.457031 L 250.355469 214.457031 L 244.355469 214.457031 Z M 244.355469 203.457031 "/>
<g style="fill:rgb(20%,80%,80%);fill-opacity:1;">
  <use xlink:href="#glyph0-3" x="244.355469" y="212.120117"/>
</g>
<path style=" stroke:none;fill-rule:nonzero;fill:rgb(100%,100%,100%);fill-opacity:1;" d="M 211.226562 191.90625 L 217.226562 191.90625 L 217.226562 202.90625 L 211.226562 202.90625 Z M 211.226562 191.90625 "/>
<g style="fill:rgb(20%,80%,80%);fill-opacity:1;">
  <use xlink:href="#glyph0-3" x="211.226562" y="200.569336"/>
</g>
<path style=" stroke:none;fill-rule:nonzero;fill:rgb(100%,100%,100%);fill-opacity:1;" d="M 255.902344 173.328125 L 261.902344 173.328125 L 261.902344 184.328125 L 255.902344 184.328125 Z M 255.902344 173.328125 "/>
<g style="fill:rgb(20%,80%,80%);fill-opacity:1;">
  <use xlink:href="#glyph0-3" x="255.902344" y="181.991211"/>
</g>
</g>
</svg>

<svg xmlns="http://www.w3.org/2000/svg" xmlns:xlink="http://www.w3.org/1999/xlink" width="300pt" height="300pt" viewBox="0 0 300 300"><defs><symbol overflow="visible"><path d="M.453 1.594v-7.938h4.5v7.938zm.5-.5h3.5v-6.938h-3.5zm0 0"/></symbol><symbol overflow="visible" id="a"><path d="M.89-6.563H2.08l2.906 5.485v-5.484h.86V0H4.656L1.75-5.484V0H.89zm0 0"/></symbol><symbol overflow="visible" id="b"><path d="M3.547-5.953c-.65 0-1.164.242-1.547.72-.375.48-.563 1.13-.563 1.952 0 .835.188 1.49.563 1.967.383.48.898.72 1.547.72.644 0 1.156-.24 1.53-.72.376-.476.564-1.132.564-1.968 0-.822-.187-1.474-.562-1.954-.375-.477-.887-.72-1.53-.72zm0-.734c.914 0 1.648.312 2.203.937.55.617.828 1.438.828 2.47 0 1.042-.277 1.87-.828 2.483-.555.617-1.29.922-2.203.922-.93 0-1.668-.305-2.22-.922C.774-1.41.5-2.237.5-3.28c0-1.033.273-1.853.828-2.47.55-.625 1.29-.938 2.22-.938zm0 0"/></symbol><symbol overflow="visible" id="c"><path d="M.89-6.563h3.766v.75h-2.89v1.938h2.61v.734h-2.61V0H.89zm0 0"/></symbol></defs><g><path fill="#fff" d="M0 0h300v300H0z"/><path d="M156.586 199.465l-22.69-2.375M169.988 181l-13.402 18.465" stroke-width="1.2" stroke="#000" stroke-miterlimit="10" fill="none"/><path d="M124.605 176.254m.727 2.91l.953-.426m-.226 3.336l1.905-.85m-1.18 3.76l2.856-1.273m-2.128 4.185l3.808-1.7m-3.082 4.61l4.762-2.12m-4.035 5.03l5.715-2.547m-4.99 5.457l6.67-2.97m-6.14 5.075l7.354-3.28" stroke="#000" stroke-miterlimit="10" fill="none"/><path d="M124.605 176.254l-15.257 16.96M124.605 176.254l13.403-18.47M113.188 156.5l11.417 19.754M109.348 193.215l-20.848-9.27M88.5 183.945l1.188-11.343" stroke-width="1.2" stroke="#000" stroke-miterlimit="10" fill="none"/><path d="M89.688 172.602l1.183-11.348M90.87 161.254l11.16-2.375" stroke-width="1.2" stroke="#00f" stroke-miterlimit="10" fill="none"/><path d="M102.03 158.88l11.157-2.38" stroke-width="1.2" stroke="#000" stroke-miterlimit="10" fill="none"/><path d="M90.87 161.254l-8.48-7.63" stroke-width="1.2" stroke="#00f" stroke-miterlimit="10" fill="none"/><path d="M82.39 153.625l-8.48-7.63" stroke-width="1.2" stroke="#000" stroke-miterlimit="10" fill="none"/><path d="M87.87 155.754h7v11h-7zm0 0" fill="#fff"/><use xlink:href="#a" x="87.871" y="164.417" fill="#00f"/><path d="M73.91 145.996l4.73-22.32M69.13 142.652l3.784-17.855M52.215 153.06l21.695-7.064M78.64 123.676l-16.964-15.258M61.676 108.418L39.98 115.48M61.168 114.23l-17.355 5.65M39.98 115.48l-4.73 22.32M35.25 137.8l16.965 15.26M40.535 135.336l13.57 12.207M138.008 157.785l11.344 1.188" stroke-width="1.2" stroke="#000" stroke-miterlimit="10" fill="none"/><path d="M149.352 158.973l11.347 1.187M160.7 160.16l4.644 10.418" stroke-width="1.2" stroke="#00f" stroke-miterlimit="10" fill="none"/><path d="M165.344 170.578L169.988 181" stroke-width="1.2" stroke="#000" stroke-miterlimit="10" fill="none"/><path d="M160.7 160.16l6.698-9.234" stroke-width="1.2" stroke="#00f" stroke-miterlimit="10" fill="none"/><path d="M167.398 150.926l6.7-9.23" stroke-width="1.2" stroke="#000" stroke-miterlimit="10" fill="none"/><path d="M157.7 154.66h7v11h-7zm0 0" fill="#fff"/><use xlink:href="#a" x="157.699" y="163.323" fill="#00f"/><path d="M176.55 140.602l-4.644-10.418" stroke-width="1.2" stroke="#000" stroke-miterlimit="10" fill="none"/><path d="M171.906 130.184l-4.648-10.422" stroke-width="1.2" stroke="#f00" stroke-miterlimit="10" fill="none"/><path d="M171.648 142.79L167 132.366" stroke-width="1.2" stroke="#000" stroke-miterlimit="10" fill="none"/><path d="M167 132.367l-4.645-10.418" stroke-width="1.2" stroke="#f00" stroke-miterlimit="10" fill="none"/><path d="M174.098 141.695l22.69 2.37" stroke-width="1.2" stroke="#000" stroke-miterlimit="10" fill="none"/><path d="M156.81 115.355h8v11h-8zm0 0" fill="#fff"/><use xlink:href="#b" x="156.809" y="124.019" fill="#f00"/><path d="M196.79 144.066l9.292 20.84M202.62 143.965l7.435 16.672M210.19 125.602l-13.4 18.464M206.082 164.906l22.69 2.37M228.773 167.277l13.403-18.464M225.77 162.277l10.718-14.77M228.773 167.277l9.293 20.84M242.176 148.813l-9.293-20.836M232.883 127.977l-22.692-2.375M230.055 133.078l-18.153-1.898M232.883 127.977l13.402-18.465M246.285 109.512l6.7-9.235" stroke-width="1.2" stroke="#000" stroke-miterlimit="10" fill="none"/><path d="M252.984 100.277l6.703-9.234" stroke-width="1.2" stroke="#3cc" stroke-miterlimit="10" fill="none"/><path d="M246.285 109.512l9.23 6.7" stroke-width="1.2" stroke="#000" stroke-miterlimit="10" fill="none"/><path d="M255.516 116.21l9.234 6.7" stroke-width="1.2" stroke="#3cc" stroke-miterlimit="10" fill="none"/><path d="M246.285 109.512l-9.234-6.703" stroke-width="1.2" stroke="#000" stroke-miterlimit="10" fill="none"/><path d="M237.05 102.81l-9.23-6.7" stroke-width="1.2" stroke="#3cc" stroke-miterlimit="10" fill="none"/><path d="M256.688 85.543h6v11h-6zm0 0" fill="#fff"/><use xlink:href="#c" x="256.688" y="94.206" fill="#3cc"/><path d="M261.75 117.41h6v11h-6zm0 0" fill="#fff"/><use xlink:href="#c" x="261.75" y="126.073" fill="#3cc"/><path d="M221.82 90.61h6v11h-6zm0 0" fill="#fff"/><use xlink:href="#c" x="221.82" y="99.272" fill="#3cc"/><path d="M238.066 188.117l4.645 10.418" stroke-width="1.2" stroke="#000" stroke-miterlimit="10" fill="none"/><path d="M242.71 198.535l4.645 10.422" stroke-width="1.2" stroke="#3cc" stroke-miterlimit="10" fill="none"/><path d="M238.066 188.117l-10.42 4.645" stroke-width="1.2" stroke="#000" stroke-miterlimit="10" fill="none"/><path d="M227.645 192.762l-10.418 4.644" stroke-width="1.2" stroke="#3cc" stroke-miterlimit="10" fill="none"/><path d="M238.066 188.117l10.418-4.644" stroke-width="1.2" stroke="#000" stroke-miterlimit="10" fill="none"/><path d="M248.484 183.473l10.418-4.645" stroke-width="1.2" stroke="#3cc" stroke-miterlimit="10" fill="none"/><path d="M244.355 203.457h6v11h-6zm0 0" fill="#fff"/><use xlink:href="#c" x="244.355" y="212.12" fill="#3cc"/><path d="M211.227 191.906h6v11h-6zm0 0" fill="#fff"/><use xlink:href="#c" x="211.227" y="200.569" fill="#3cc"/><path d="M255.902 173.328h6v11h-6zm0 0" fill="#fff"/><use xlink:href="#c" x="255.902" y="181.991" fill="#3cc"/></g></svg>
